X:200
T:Himlens polska
R:sl\"angpolska
A:Finland
Z:id:hn-sp-200
M:3/4
L:1/16
K:Gm
G3A G2F2 G2A2 | B3c B2A2 B2c2 | d2cd e2dc d2cB | B2AG FGAF D2F2 |
G3A G2F2 G2A2 | B3c B2A2 B2c2 | d2cd e2dc B2AG |1 BAGF G4 G2DF :|
[2 BAGF G4 G2B2 |: d4 d3e d2c2 | B2A2 A2F2 D2B,2 | f4 f3g f2e2 |
d2c2 c2Bc B4 | a4 a4 g4 | f3g a2f2 d2B2 | b2b2 a2a2 g2g2 |
f3g a2f2 d2fd | e3d c2B2 A2G2 |1 BAGF G4 G2B2 :|2 BAGF G4 G4 ||

